fa-people-group.svg

<svg width="20" height="15" viewBox="0 0 20 15" fill="none" xmlns="http://www.w3.org/2000/svg">
<path d="M4 4C3.4375 4 2.96875 3.71875 2.6875 3.25C2.40625 2.8125 2.40625 2.21875 2.6875 1.75C2.96875 1.3125 3.4375 1 4 1C4.53125 1 5 1.3125 5.28125 1.75C5.5625 2.21875 5.5625 2.8125 5.28125 3.25C5 3.71875 4.53125 4 4 4ZM3.5 5H4.5C5.25 5 5.9375 5.25 6.5 5.65625C6.125 5.96875 5.8125 6.375 5.5625 6.8125C5.25 6.625 4.875 6.5 4.5 6.5H3.5V10.5V12V12.5H4.5V12C4.5 11.5938 4.8125 11.25 5.25 11.25C5.65625 11.25 6 11.5938 6 12V13C6 13.5625 5.53125 14 5 14H3C2.4375 14 2 13.5625 2 13V11.6875C0.8125 11.125 0 9.90625 0 8.5C0 6.59375 1.5625 5 3.5 5ZM2 7.1875C1.6875 7.53125 1.5 8 1.5 8.5C1.5 9.03125 1.6875 9.5 2 9.84375V7.1875ZM15.5 6.5C15.0938 6.5 14.7188 6.625 14.4062 6.8125C14.1562 6.375 13.8438 5.96875 13.4688 5.65625C14.0312 5.25 14.75 5 15.5 5H16.5C18.4062 5 20 6.59375 20 8.5C20 9.90625 19.1562 11.125 18 11.6875V13C18 13.5625 17.5312 14 17 14H15C14.4375 14 14 13.5625 14 13V12C14 11.5938 14.3125 11.25 14.75 11.25C15.1562 11.25 15.5 11.5938 15.5 12V12.5H16.5V12V10.5V6.5H15.5ZM18.5 8.5C18.5 8 18.3125 7.53125 18 7.1875V9.84375C18.3125 9.5 18.5 9.03125 18.5 8.5ZM17.5 2.5C17.5 3.0625 17.1875 3.53125 16.75 3.8125C16.2812 4.09375 15.6875 4.09375 15.25 3.8125C14.7812 3.53125 14.5 3.0625 14.5 2.5C14.5 1.96875 14.7812 1.5 15.25 1.21875C15.6875 0.9375 16.2812 0.9375 16.75 1.21875C17.1875 1.5 17.5 1.96875 17.5 2.5ZM10 4.5C9.34375 4.5 8.78125 4.1875 8.46875 3.625C8.15625 3.09375 8.15625 2.4375 8.46875 1.875C8.78125 1.34375 9.34375 1 10 1C10.625 1 11.1875 1.34375 11.5 1.875C11.8125 2.4375 11.8125 3.09375 11.5 3.625C11.1875 4.1875 10.625 4.5 10 4.5ZM9.5 5.5H10.5C12.4062 5.5 14 7.09375 14 9C14 10.4062 13.1562 11.625 12 12.1875V14C12 14.5625 11.5312 15 11 15H9C8.4375 15 8 14.5625 8 14V12.1875C6.8125 11.625 6 10.4062 6 9C6 7.09375 7.5625 5.5 9.5 5.5ZM9.5 12.5V13.5H10.5V12.5V11V7H9.5V11V12.5ZM8 10.3438V7.6875C7.6875 8.03125 7.5 8.5 7.5 9C7.5 9.53125 7.6875 9.96875 8 10.3438ZM12 10.3438C12.3125 10 12.5 9.53125 12.5 9C12.5 8.5 12.3125 8.03125 12 7.6875V10.3438Z" fill="#241D16"/>
</svg>

<svg xmlns="http://www.w3.org/2000/svg" width="20" height="15" fill="none"><path fill="#241D16" d="M4 4a1.5 1.5 0 0 1-1.312-.75c-.282-.437-.282-1.031 0-1.5C2.968 1.313 3.438 1 4 1c.531 0 1 .313 1.281.75.282.469.282 1.063 0 1.5C5 3.719 4.531 4 4 4m-.5 1h1c.75 0 1.438.25 2 .656a4.2 4.2 0 0 0-.937 1.157A2.1 2.1 0 0 0 4.5 6.5h-1v6h1V12a.74.74 0 0 1 .75-.75A.76.76 0 0 1 6 12v1c0 .563-.469 1-1 1H3c-.562 0-1-.437-1-1v-1.312A3.52 3.52 0 0 1 0 8.5C0 6.594 1.563 5 3.5 5M2 7.188C1.688 7.53 1.5 8 1.5 8.5c0 .531.188 1 .5 1.344zM15.5 6.5c-.406 0-.781.125-1.094.313a4.2 4.2 0 0 0-.937-1.157A3.5 3.5 0 0 1 15.5 5h1C18.406 5 20 6.594 20 8.5a3.57 3.57 0 0 1-2 3.188V13c0 .563-.469 1-1 1h-2c-.562 0-1-.437-1-1v-1a.74.74 0 0 1 .75-.75.76.76 0 0 1 .75.75v.5h1v-6zm3 2c0-.5-.187-.969-.5-1.312v2.656c.313-.344.5-.813.5-1.344m-1-6c0 .563-.312 1.031-.75 1.313-.469.28-1.062.28-1.5 0A1.5 1.5 0 0 1 14.5 2.5c0-.531.281-1 .75-1.281.438-.282 1.031-.282 1.5 0 .438.281.75.75.75 1.281m-7.5 2c-.656 0-1.219-.312-1.531-.875-.313-.531-.313-1.187 0-1.75A1.76 1.76 0 0 1 10 1c.625 0 1.188.344 1.5.875.313.563.313 1.219 0 1.75A1.68 1.68 0 0 1 10 4.5m-.5 1h1C12.406 5.5 14 7.094 14 9a3.57 3.57 0 0 1-2 3.188V14c0 .563-.469 1-1 1H9c-.562 0-1-.437-1-1v-1.812A3.52 3.52 0 0 1 6 9c0-1.906 1.563-3.5 3.5-3.5m0 7v1h1V7h-1v5.5M8 10.344V7.688C7.688 8.03 7.5 8.5 7.5 9c0 .531.188.969.5 1.344m4 0c.313-.344.5-.813.5-1.344 0-.5-.187-.969-.5-1.312z"/></svg>
